X:1100
T:Navvy on the Line
S:John Skelton and Kieran O'Hare, "Double Barrelled"
M:C
L:1/8
K:G Major
|G2ge dBGB|A2AB AGEF|G2ge dBGB|AGAB A2GA|!
B2ge dBGB|AGAB AGEG|~g2gd egdB|AGFA G2 z2 |]!
|g2BA GABd|edBA GABd|g2BA GABd|~e2ed edBd|!
g2BA GABd|edBA GABd|~g2gd egdB|AGFA G2 z2|]!
